assets/features/channel/southeast-asia1/Maybank.svg

<svg width="80" height="80" viewBox="0 0 80 80" fill="none" xmlns="http://www.w3.org/2000/svg">
<rect width="80" height="80" rx="8" fill="#FFCF00"/>
<path fill-rule="evenodd" clip-rule="evenodd" d="M39.9881 20C28.9492 20 20 28.9536 20 40.0014C20 51.0357 28.9492 60 39.9881 60C51.0258 60 59.9811 51.0357 59.9811 40.0014C59.9811 28.9536 51.0258 20 39.9881 20ZM39.9881 58.3999C29.8323 58.3999 21.5964 50.1519 21.5964 40.0014C21.5964 29.8441 29.8323 21.6006 39.9881 21.6006C50.15 21.6006 58.3786 29.8441 58.3786 40.0014C58.3786 50.1519 50.15 58.3999 39.9881 58.3999Z" fill="black"/>
<path fill-rule="evenodd" clip-rule="evenodd" d="M32.0166 39.0764C30.5861 38.7216 29.3317 40.3908 28.625 41.6572C28.8683 39.9258 30.9904 37.1005 32.0166 39.0764Z" fill="black"/>
<path fill-rule="evenodd" clip-rule="evenodd" d="M28.8618 39.1042C29.3451 37.4619 30.4855 36.8643 31.084 37.3371C30.2739 37.5944 29.6581 38.0884 28.8618 39.1042Z" fill="black"/>
<path fill-rule="evenodd" clip-rule="evenodd" d="M32.524 41.7408C33.258 41.1153 33.185 40.2036 32.0447 39.9046C31.1916 39.6818 29.373 41.2055 29.1826 42.8891C29.902 41.9563 32.0168 40.2449 32.524 41.7408Z" fill="black"/>
<path fill-rule="evenodd" clip-rule="evenodd" d="M43.9907 46.1172C44.1338 43.953 42.0329 42.9305 41.6186 40.7256C41.2255 38.5057 44.9016 34.9653 42.5786 31.333C46.9613 34.8673 43.5285 36.9613 45.743 39.9047C44.8877 39.6607 44.0319 38.8744 43.7852 38.4851C42.5435 40.1063 46.8115 42.3395 43.9907 46.1172Z" fill="black"/>
<path fill-rule="evenodd" clip-rule="evenodd" d="M36.9446 28.6821L37.9947 29.4479C36.7736 30.5751 35.1288 30.1234 33.8247 31.2641C34.3609 29.8444 36.7464 29.6361 36.9446 28.6821Z" fill="black"/>
<path fill-rule="evenodd" clip-rule="evenodd" d="M40.8847 30.2756C41.3891 29.7192 40.9264 28.9189 38.8401 28.6543C41.0132 29.7326 37.5142 29.948 37.3856 31.7709C36.2558 32.2236 35.3382 31.4796 34.7674 31.9936L33.7691 31.5631C33.1081 31.9035 33.234 32.8079 33.8838 33.0797L34.0258 33.3643C33.3203 34.0186 32.994 34.6028 33.7346 35.2561C34.1343 34.5126 34.3331 34.2614 34.7886 33.8861C35.2085 34.1779 35.9501 33.9763 36.9446 32.8915L37.031 32.9193C36.2347 35.6465 34.2179 36.0843 33.5714 35.9528C33.9673 36.5438 36.5342 36.9052 36.8466 35.7501C37.5883 33.1554 40.0812 32.0427 37.9285 32.0839C38.506 31.4028 40.4715 30.7484 40.8847 30.2756ZM35.4496 33.4411L35.101 32.9326C35.2997 33.4689 35.8349 33.2111 35.5292 32.4531L36.5621 32.4464L35.4496 33.4411Z" fill="black"/>
<path fill-rule="evenodd" clip-rule="evenodd" d="M41.9668 28.8844C43.0064 29.5521 43.5003 30.0115 44.1813 30.8108C44.3172 29.7125 43.6846 27.5065 42.7586 26.998L41.9668 28.8844Z" fill="black"/>
<path fill-rule="evenodd" clip-rule="evenodd" d="M25.3218 37.7482C25.9921 35.9878 27.6381 33.8726 30.2952 32.2865C30.9005 30.7076 30.6978 29.6294 37.1318 27.1522C37.2955 26.1987 37.2683 25.0581 37.5288 25.0581C37.8072 25.0581 38.7633 25.4686 39.4309 26.4566L40.1442 26.3736C40.2583 25.8089 40.6347 24.279 41.142 23.5199C41.6052 22.7837 42.5017 22.7202 43.6499 23.667C44.8532 24.6404 45.6912 25.0581 47.3399 27.1522C48.7203 27.7787 50.8908 28.5712 52.7649 30.8535C51.9542 30.3383 51.0261 30.1301 50.2721 30.0532C51.805 31.3686 52.814 33.5941 52.0389 36.8365C51.7465 33.8035 49.5171 32.5371 48.1574 31.5703C48.8979 34.1372 45.6912 33.2466 44.7245 31.333L45.5731 31.2851C45.4646 27.3889 43.636 25.1484 42.8147 24.4673C41.7685 23.5901 41.2043 25.6847 40.8502 27.2636L39.7165 28.133L40.015 27.2848C38.3913 27.4162 36.5689 28.3696 35.4497 28.877C32.6077 30.1712 31.8883 30.7978 31.2619 32.9687C29.0118 33.9144 26.4136 36.5096 25.3218 37.7482Z" fill="black"/>
<path fill-rule="evenodd" clip-rule="evenodd" d="M39.5245 37.2182C39.8235 37.5663 41.7056 40.3904 39.5312 44.016C40.1298 41.3511 38.4782 36.2864 36.6558 38.8739C37.8863 39.4102 38.294 40.4183 37.9632 41.3929C37.4582 40.4606 36.1686 39.4314 34.8957 39.8619C34.252 40.0713 33.414 40.078 32.7843 39.1524C31.9674 37.9489 33.3411 36.4602 30.9902 36.5783C33.8417 35.1314 33.0137 37.9343 34.3807 38.2619C35.971 38.6511 36.1552 37.6643 36.7037 37.0444C37.1525 36.4947 37.9632 36.1055 38.8118 36.6696C39.2255 35.4243 38.6341 33.4689 39.789 32.4186C40.2239 32.036 41.5836 32.0912 42.2857 32.6413C41.2913 32.6269 40.1086 33.8309 39.5245 37.2182Z" fill="black"/>
<path fill-rule="evenodd" clip-rule="evenodd" d="M54.0345 32.2515C55.4784 37.2944 55.0747 42.1509 53.5858 45.0452C53.7634 43.2291 52.1743 40.5787 52.814 37.4894C49.7956 40.4182 54.5185 47.6193 47.6596 52.3359C48.6858 50.6868 49.148 46.5829 48.7904 45.1008L49.7533 46.0821C50.3239 44.2031 50.393 41.5176 49.3189 38.8326L50.814 39.5628C50.9849 35.3886 47.9374 35.0829 47.3678 33.9418C47.3678 35.1592 48.7904 36.175 49.0472 37.7823C48.0488 37.2944 47.3227 37.2466 46.8116 37.2944C47.58 37.8586 49.2977 41.1841 48.7904 43.8411C48.0488 43.2223 47.3678 42.93 46.6194 42.8821C47.5388 44.2594 47.9068 47.8838 46.7693 49.5184L46.1785 47.6193C45.6356 49.651 44.0531 50.4924 42.9712 50.7358C44.3248 49.3447 44.0531 46.8468 42.0886 46.1791C40.3219 45.567 38.064 46.7778 37.1675 50.9864C35.8773 51.3623 32.0448 50.5475 34.3333 48.072C35.7342 48.5516 39.289 46.1646 39.0484 44.4888C38.7116 42.172 36.5968 41.3578 34.9174 41.3789C32.8444 41.3995 31.4328 43.3271 29.739 44.1825C28.3191 43.967 27.8358 43.772 27.1165 41.8729C27.0262 40.7179 28.2568 39.9176 28.2356 38.728C27.2239 38.944 26.9806 37.4058 25.0161 38.9997L25.1235 38.0324C24.3963 38.6868 24.261 39.4659 24.2466 39.6263C24.5951 40.3147 25.0957 40.9401 26.0624 41.5944C27.2172 44.6759 28.4065 45.024 29.6305 45.1499C29.8465 45.4412 30.7508 46.52 31.9017 46.7009L31.797 44.0639C34.3122 41.5455 36.1691 43.0831 36.4191 43.7442C34.1902 44.2031 35.766 48.9759 32.0688 46.8468C31.9123 47.3408 32.1244 48.5582 32.5866 49.2684C32.9663 52.5375 37.0734 51.7372 38.3502 52.3153C38.2137 49.1358 39.9739 46.8123 41.4834 47.0139C42.9924 47.1877 43.3855 49.6855 40.798 52.0023C41.4411 52.3359 44.2096 51.8697 45.6144 50.8472C45.7508 51.6542 44.7107 54.0473 43.4133 55.7231C54.2601 53.2409 59.1194 41.4552 54.0345 32.2515ZM26.6331 41.1562L25.2311 39.6602L26.3062 38.9162L26.9049 39.1663L26.3898 39.6045L26.8453 40.4182L26.6331 41.1562ZM30.2357 44.76L31.14 44.085C31.043 44.9059 31.3416 46.0053 31.3416 46.0053L30.2357 44.76ZM35.8841 45.5458L36.6697 45.6082L36.4614 44.4187L37.6509 44.8291C37.5289 45.7686 36.9448 46.061 35.5294 46.7421L35.8841 45.5458ZM33.0287 48.663L32.5588 47.5357L33.683 47.9874L33.0287 48.663Z" fill="black"/>
</svg>

<svg xmlns="http://www.w3.org/2000/svg" width="80" height="80" fill="none" viewBox="0 0 80 80"><rect width="80" height="80" fill="#ffcf00" rx="8"/><path fill="#000" fill-rule="evenodd" d="M39.988 20C28.95 20 20 28.954 20 40.001 20 51.036 28.95 60 39.988 60s19.993-8.964 19.993-19.999C59.981 28.954 51.026 20 39.988 20m0 38.4c-10.156 0-18.392-8.248-18.392-18.4 0-10.157 8.236-18.4 18.392-18.4 10.162 0 18.39 8.243 18.39 18.4 0 10.15-8.228 18.399-18.39 18.399" clip-rule="evenodd"/><path fill="#000" fill-rule="evenodd" d="M32.017 39.076c-1.43-.354-2.685 1.315-3.392 2.581.243-1.731 2.365-4.556 3.392-2.58m-3.155.027c.483-1.642 1.624-2.24 2.222-1.767-.81.257-1.426.751-2.222 1.767m3.662 2.636c.734-.625.661-1.536-.48-1.835-.852-.223-2.671 1.3-2.861 2.984.719-.933 2.834-2.644 3.341-1.148m11.466 4.376c.144-2.164-1.957-3.186-2.371-5.391-.394-2.22 3.283-5.76.96-9.393 4.382 3.534.95 5.628 3.164 8.572-.855-.244-1.711-1.03-1.958-1.42-1.241 1.621 3.027 3.855.206 7.632m-7.046-17.435 1.05.766c-1.221 1.127-2.866.675-4.17 1.816.536-1.42 2.921-1.628 3.12-2.582" clip-rule="evenodd"/><path fill="#000" fill-rule="evenodd" d="M40.885 30.276c.504-.557.041-1.357-2.045-1.622 2.173 1.079-1.326 1.294-1.454 3.117-1.13.453-2.048-.291-2.619.223l-.998-.43c-.66.34-.535 1.244.115 1.516l.142.284c-.706.655-1.032 1.239-.291 1.892.4-.743.598-.995 1.054-1.37.42.292 1.161.09 2.156-.995l.086.028c-.796 2.728-2.813 3.165-3.46 3.034.396.59 2.963.952 3.276-.203.741-2.595 3.234-3.707 1.081-3.666.578-.681 2.544-1.336 2.957-1.808M35.45 33.44l-.349-.508c.199.536.734.278.428-.48l1.033-.007zm6.517-4.556c1.04.668 1.533 1.128 2.214 1.927.136-1.099-.496-3.305-1.422-3.813z" clip-rule="evenodd"/><path fill="#000" fill-rule="evenodd" d="M25.322 37.748c.67-1.76 2.316-3.875 4.973-5.462.605-1.578.403-2.657 6.837-5.134.163-.953.136-2.094.397-2.094.278 0 1.234.41 1.902 1.399l.713-.083c.114-.565.49-2.095.998-2.854.463-.736 1.36-.8 2.508.147 1.203.973 2.041 1.391 3.69 3.485 1.38.627 3.55 1.42 5.425 3.701-.81-.515-1.739-.723-2.493-.8 1.533 1.316 2.542 3.541 1.767 6.784-.293-3.034-2.522-4.3-3.882-5.267.74 2.567-2.466 1.677-3.432-.237l.848-.048c-.108-3.896-1.937-6.137-2.758-6.818-1.046-.877-1.61 1.218-1.965 2.797l-1.133.869.298-.848c-1.624.131-3.446 1.085-4.565 1.592-2.842 1.294-3.562 1.92-4.188 4.092-2.25.945-4.848 3.54-5.94 4.78" clip-rule="evenodd"/><path fill="#000" fill-rule="evenodd" d="M39.525 37.218c.299.348 2.18 3.172.006 6.798.599-2.665-1.053-7.73-2.875-5.142 1.23.536 1.638 1.544 1.307 2.519-.505-.932-1.794-1.962-3.067-1.531-.644.21-1.482.216-2.112-.71-.817-1.203.557-2.692-1.794-2.574 2.852-1.447 2.024 1.356 3.39 1.684 1.591.39 1.775-.598 2.324-1.218.449-.55 1.26-.938 2.108-.374.413-1.246-.178-3.201.977-4.251.435-.383 1.795-.328 2.497.222-.995-.014-2.177 1.19-2.761 4.577" clip-rule="evenodd"/><path fill="#000" fill-rule="evenodd" d="M54.035 32.252c1.443 5.042 1.04 9.899-.45 12.793.178-1.816-1.41-4.466-.771-7.556-3.018 2.93 1.705 10.13-5.154 14.847 1.026-1.65 1.488-5.753 1.13-7.235l.963.981c.57-1.879.64-4.564-.434-7.25l1.495.73c.17-4.173-2.877-4.48-3.446-5.62 0 1.217 1.422 2.233 1.68 3.84-1-.488-1.725-.535-2.236-.488.768.565 2.486 3.89 1.978 6.547-.741-.619-1.422-.911-2.17-.959.919 1.377 1.287 5.002.15 6.636l-.592-1.899c-.542 2.032-2.125 2.873-3.207 3.117 1.354-1.391 1.082-3.89-.882-4.557-1.767-.612-4.025.599-4.922 4.807-1.29.376-5.122-.438-2.834-2.914 1.401.48 4.956-1.907 4.715-3.583-.336-2.317-2.451-3.131-4.13-3.11-2.074.02-3.485 1.948-5.179 2.803-1.42-.215-1.903-.41-2.623-2.31-.09-1.154 1.14-1.954 1.12-3.144-1.012.216-1.255-1.322-3.22.272l.108-.968c-.728.655-.863 1.434-.877 1.594.348.689.849 1.314 1.815 1.968 1.155 3.082 2.345 3.43 3.569 3.556.215.291 1.12 1.37 2.27 1.55l-.104-2.636c2.515-2.519 4.372-.98 4.622-.32-2.229.46-.653 5.232-4.35 3.103-.157.494.055 1.711.518 2.421.38 3.27 4.486 2.47 5.763 3.047-.136-3.18 1.624-5.503 3.133-5.301 1.51.174 1.903 2.671-.685 4.988.643.334 3.412-.132 4.816-1.155.137.807-.903 3.2-2.2 4.876a16.04 16.04 0 0 0 10.62-23.471m-27.402 8.904L25.23 39.66l1.075-.744.599.25-.515.439.455.813zm3.603 3.604.904-.675c-.097.82.202 1.92.202 1.92zm5.648.786.786.062-.209-1.19 1.19.411c-.122.94-.706 1.232-2.122 1.913zm-2.855 3.117-.47-1.127 1.124.451z" clip-rule="evenodd"/></svg>
